X:495
T:Unknown Title
R:polka
D:Planxty
Z:id:hn-polka-9
M:2/4
L:1/8
K:D
A2 BA|F2 A2|d2e2|f4|g2 ag|f2 e2|d2 f2|A4|
A2 BA|F2 A2|d2e2|f4|g2 ag|f2 e2|d4|d4:|
e2 fe|c2 e2|f2 e2|a4|e2 fe|c2 e2|f2 e2|B4|
e2 fe|c2 e2|f2 e2|a4|e2 fe|d2 B2|B2 A2|A4:|
